X:247
T:Wildwood Flower
F:http://www.banjolin.co.uk/tunes/abcs/wildwoodflower.abc
O:America
R:Old Time
M:4/4
L:1/8
K:G
 EF|: G2 Ac E2 FE| D2 FB, C2 EF| G2 Ac E2 FE| D2 FB, C2 G2|
   | e2 ed c2 GG|A2 BA G2 E2| E2 ED E2 GE| D2 FB, C2 :|

